X: 209
T: No_66_Closing_Song_of_Alligator_Dance.krn
N: Derived from No_66_Closing_Song_of_Alligator_Dance.krn
%%abc-version 2.0
%%abcx-abcm2ps-target-version 5.9.1 (29 Sep 2008)
%%abc-creator hum2abc beta
%%abcx-conversion-date 2019/03/15 08:38:45
%%humdrum-veritas 2604803461
%%humdrum-veritas-data 1154335976
%%linebreak <none>
%%barnumbers 0
L: 1/16
M: 2/4
K: F clef=bass
[K:clef=bass][M:2/4]z3 B, G,3F, | 
D,6B,,D, ||  
[M:3/4]D,3C, C,3D, D,3F, ||  
[M:2/4]D,6B,,D, ||  
[M:3/4]D,3C, C,2 z G, G,3F, ||  
[M:2/4]D,6B,,D, ||  
[M:3/4]D,3C, C,3D, D,3F, ||  
[M:2/4]D,6B,,D, ||  
[M:3/4]D,3C, C,2 z G, G,3F, ||  
[M:2/4]D,6B,,D, ||  
[M:3/4]D,3C, C,3D, D,3F, ||  
[M:2/4]D,6B,,D, | 
D,3C, C,2 z2 |]  



